icons/1_Primary/mailbox.org.svg

<svg xmlns="http://www.w3.org/2000/svg" width="1024" height="1024" fill="none">
   <g clip-path="url(#a)">
      <path fill="#98DC9A" d="M512 1024c282.77 0 512-229.23 512-512S794.77 0 512 0 0 229.23 0 512s229.23 512 512 512Z"/>
      <path fill="#fff" d="M232.37 428.37v-.6c0-21.77 21.78-21.77 21.78-21.77H467v59.68l-90.1 61.68-144.53-98.99ZM254.14 618H467V497.35l-84.34 57.5c-6 4.09-12 0-12 0l-138.29-95.16v136.54s0 21.77 21.78 21.77m488.47 0h49V481.89c0-58.33-30.88-75.89-77-75.89a162.144 162.144 0 0 0-60 11.43C646.83 412.57 634.76 406 606 406c-25.55 0-65.73 8.58-79.38 19v193h48.46V452.13c11.32-2.76 19-4.88 31.5-4.79 19.6.15 27.58 8.61 28.16 35.86V618h48.34l-.29-137.8c0-19.44-3.78-28.07-3.78-28.07 10-3.34 19.59-4.79 33.68-4.79 22.06 0 29.18 9.15 30 36.44L742.62 618Z"/>
   </g>
   <defs>
      <clipPath id="a">
         <path fill="#fff" d="M0 0h1024v1024H0z"/>
      </clipPath>
   </defs>
</svg>

<svg width="1024" height="1024" viewBox="0 0 1024 1024" fill="none" xmlns="http://www.w3.org/2000/svg">
<g clip-path="url(#clip0_2_2730)">
<path d="M512 1024C794.77 1024 1024 794.77 1024 512C1024 229.23 794.77 0 512 0C229.23 0 0 229.23 0 512C0 794.77 229.23 1024 512 1024Z" fill="#98DC9A"/>
<path d="M232.37 428.37V427.77C232.37 406 254.15 406 254.15 406H467V465.68L376.9 527.36L232.37 428.37ZM254.14 618H467V497.35L382.66 554.85C376.66 558.94 370.66 554.85 370.66 554.85L232.37 459.69V596.23C232.37 596.23 232.37 618 254.15 618M742.62 618H791.62V481.89C791.62 423.56 760.74 406 714.62 406C694.077 405.975 673.715 409.853 654.62 417.43C646.83 412.57 634.76 406 606 406C580.45 406 540.27 414.58 526.62 425V618H575.08V452.13C586.4 449.37 594.08 447.25 606.58 447.34C626.18 447.49 634.16 455.95 634.74 483.2V618H683.08L682.79 480.2C682.79 460.76 679.01 452.13 679.01 452.13C689.01 448.79 698.6 447.34 712.69 447.34C734.75 447.34 741.87 456.49 742.69 483.78L742.62 618Z" fill="white"/>
</g>
<defs>
<clipPath id="clip0_2_2730">
<rect width="1024" height="1024" fill="white"/>
</clipPath>
</defs>
</svg>
